X:439
T:March For The Barra Feis 
C:Joe Buchanan's Scottish Tome - Page 056.1
I:056 1
C:Charles Gore
R:March
Z:Carl Allison
L:1/8
M:2/4
K:D
| d2 A>B d2 de | f2 a>fed B2 | AB/AF ABde | (f<a)fd e4 |
| a2 f>g a2 d>c | B2 g>e dcBA | F2 A>B dfed | A<dd>e d4 |]
| a2 A>B d2 f>g | afed (e<d) B2 | A>BAF d>efd | (a<f)ed e z2z2z2 |
| d2 A>B d2 fd | a>fed (e<d) B2 | A2 a>f edBG | A<dd>e d4 |]
| d2 d>d d2 de | fda>f g/f/e/d/ B2 | A>BAF d>efd | e2 e>f e z A/G/F/E/ |
| D>FAF dAfd | A<cec ge a/g/2f/2e/2 | fafd Bgec | (A<d)d>e d2 DC |
| (B,<G)G>A GB,CB, | A,DFA B2 cd | A>Bde fafd | (B<e)e>f e z2z2z2 |]
|d2 d>d d2 dfad | b2 ge dcBA | f>gaf edBG | (A<d)d>e  d z|]

